icons/svg/subway/subway_sofia.svg

<?xml version="1.0" encoding="UTF-8" standalone="no"?>
<svg
   xmlns:dc="http://purl.org/dc/elements/1.1/"
   xmlns:cc="http://creativecommons.org/ns#"
   xmlns:rdf="http://www.w3.org/1999/02/22-rdf-syntax-ns#"
   xmlns:svg="http://www.w3.org/2000/svg"
   xmlns="http://www.w3.org/2000/svg"
   xmlns:sodipodi="http://sodipodi.sourceforge.net/DTD/sodipodi-0.dtd"
   xmlns:inkscape="http://www.inkscape.org/namespaces/inkscape"
   width="16"
   height="16"
   id="svg2"
   version="1.1"
   inkscape:version="0.91 r13725"
   sodipodi:docname="subway_sofia.svg">
  <defs
     id="defs13">
    <linearGradient
       gradientTransform="matrix(0.08596979,0,0,0.08596979,0.67480439,1.9432845)"
       x1="87.101639"
       y1="121.69753"
       x2="87.260849"
       y2="1.2385538"
       id="l1"
       gradientUnits="userSpaceOnUse">
      <stop
         style="stop-color:#e92203;stop-opacity:1"
         offset="0"
         id="stop5" />
      <stop
         style="stop-color:#ff0000;stop-opacity:0.64628822"
         offset="1"
         id="stop7" />
    </linearGradient>
    <linearGradient
       gradientTransform="matrix(0.08400469,0,0,0.08400469,0.8422306,2.0814238)"
       x1="87.101639"
       y1="121.69753"
       x2="87.260849"
       y2="1.2385538"
       id="l1-2"
       gradientUnits="userSpaceOnUse">
      <stop
         style="stop-color:#e92203;stop-opacity:1"
         offset="0"
         id="stop5-8" />
      <stop
         style="stop-color:#ff0000;stop-opacity:0.64628822"
         offset="1"
         id="stop7-4" />
    </linearGradient>
  </defs>
  <sodipodi:namedview
     pagecolor="#ffffff"
     bordercolor="#666666"
     borderopacity="1"
     objecttolerance="10"
     gridtolerance="10"
     guidetolerance="10"
     inkscape:pageopacity="0"
     inkscape:pageshadow="2"
     inkscape:window-width="1920"
     inkscape:window-height="1006"
     id="namedview11"
     showgrid="true"
     inkscape:zoom="32"
     inkscape:cx="7.8684118"
     inkscape:cy="11.90492"
     inkscape:window-x="1920"
     inkscape:window-y="0"
     inkscape:window-maximized="1"
     inkscape:current-layer="svg2"
     showguides="false"
     inkscape:snap-global="false">
    <sodipodi:guide
       position="0,0"
       orientation="0,580"
       id="guide2989" />
    <sodipodi:guide
       position="580,0"
       orientation="-580,0"
       id="guide2991" />
    <sodipodi:guide
       position="580,580"
       orientation="0,-580"
       id="guide2993" />
    <sodipodi:guide
       position="0,580"
       orientation="580,0"
       id="guide2995" />
    <sodipodi:guide
       position="0,0"
       orientation="0,580"
       id="guide2997" />
    <sodipodi:guide
       position="580,0"
       orientation="-580,0"
       id="guide2999" />
    <sodipodi:guide
       position="580,580"
       orientation="0,-580"
       id="guide3001" />
    <sodipodi:guide
       position="0,580"
       orientation="580,0"
       id="guide3003" />
    <inkscape:grid
       type="xygrid"
       id="grid3013"
       empspacing="5"
       visible="true"
       enabled="true"
       snapvisiblegridlinesonly="true" />
  </sodipodi:namedview>
  <metadata
     id="metadata2975">image/svg+xmlen<rdf:RDF>
  <cc:Work
     rdf:about="">
    <dc:format>image/svg+xml</dc:format>
    <dc:type
       rdf:resource="http://purl.org/dc/dcmitype/StillImage" />
    <dc:title />
  </cc:Work>
</rdf:RDF>
</metadata>
  <path
     sodipodi:type="inkscape:offset"
     inkscape:radius="0.625"
     inkscape:original="M 4.0566406 4.3964844 L 4.0566406 8.0742188 L 5.5585938 8.0742188 L 5.5644531 6.0429688 L 7.9902344 7.7578125 L 8.0097656 7.765625 L 10.441406 6.0234375 L 10.441406 8.0742188 L 11.943359 8.0742188 L 11.943359 4.3964844 L 10.427734 4.3964844 L 8.0019531 6.1035156 L 5.5761719 4.3964844 L 4.0566406 4.3964844 z M 9.5527344 8.7929688 L 8.0039062 9.8945312 L 6.453125 8.7949219 L 4.0761719 8.8007812 L 7.9980469 11.603516 L 8.0175781 11.603516 L 11.925781 8.8007812 L 9.5527344 8.7929688 z "
     style="fill:#fefefe;fill-opacity:1"
     id="path4171"
     d="m 4.0566406,3.7714844 a 0.6250625,0.6250625 0 0 0 -0.625,0.625 l 0,3.6777344 a 0.6250625,0.6250625 0 0 0 0.1269532,0.3769531 0.6250625,0.6250625 0 0 0 0.1542968,0.8574219 l 3.921875,2.8027342 a 0.6250625,0.6250625 0 0 0 0.3632813,0.117188 l 0.019531,0 A 0.6250625,0.6250625 0 0 0 8.3808594,12.111328 L 12.289062,9.3085938 a 0.6250625,0.6250625 0 0 0 0.152344,-0.8574219 0.6250625,0.6250625 0 0 0 0.126953,-0.3769531 l 0,-3.6777344 a 0.6250625,0.6250625 0 0 0 -0.625,-0.625 l -1.515625,0 A 0.6250625,0.6250625 0 0 0 10.068359,3.8847656 L 8.0019531,5.3398438 5.9355469,3.8847656 A 0.6250625,0.6250625 0 0 0 5.5761719,3.7714844 l -1.5195313,0 z m 5.7597656,3.46875 0,0.8339844 a 0.6250625,0.6250625 0 0 0 0.00781,0.09375 l -0.2695313,0 A 0.6250625,0.6250625 0 0 0 9.1914062,8.2832031 l -1.1875,0.8457031 -1.1894531,-0.84375 A 0.6250625,0.6250625 0 0 0 6.4511719,8.1699219 l -0.2753907,0 a 0.6250625,0.6250625 0 0 0 0.00781,-0.09375 l 0.00195,-0.828125 1.4433593,1.0195312 a 0.6250625,0.6250625 0 0 0 0.1289063,0.070312 l 0.019531,0.00781 A 0.6250625,0.6250625 0 0 0 8.3730469,8.2734375 L 9.8164062,7.2402344 Z" />
  <path
     inkscape:connector-curvature="0"
     style="fill:#0e6abc"
     d="m 4.0755032,8.8017215 2.3780109,-0.00753 1.5510398,1.0997471 1.5474034,-1.1000283 2.3731437,0.00781 -3.9068722,2.8023499 -0.020147,-6.86e-4 -3.9225783,-2.8016639 z m -0.017916,-4.4057934 1.5190659,0 2.4246618,1.7073621 2.4256238,-1.7073621 1.515474,0 0,3.677624 -1.50047,0 0,-2.0498875 -2.4325865,1.7420601 -0.01976,-0.00758 -2.4241861,-1.7143893 -0.00755,2.0297982 -1.5002691,0 0,-3.6776239 z"
     id="path2483"
     sodipodi:nodetypes="cccccccccccccccccccccc" />
</svg>

<svg width="16" height="16" viewBox="0 0 16 16" fill="none" xmlns="http://www.w3.org/2000/svg">
<path d="M4.05664 3.77148C3.89089 3.7715 3.73192 3.83735 3.61472 3.95456C3.49751 4.07177 3.43166 4.23073 3.43164 4.39648V8.07422C3.43178 8.21034 3.47636 8.3427 3.55859 8.45117C3.46769 8.58607 3.43295 8.75109 3.46176 8.91119C3.49057 9.07129 3.58066 9.21385 3.71289 9.30859L7.63477 12.1113C7.74068 12.1873 7.8677 12.2283 7.99805 12.2285H8.01758C8.14793 12.2283 8.27495 12.1873 8.38086 12.1113L12.2891 9.30859C12.421 9.21356 12.5107 9.07086 12.5391 8.91078C12.5676 8.7507 12.5325 8.58583 12.4414 8.45117C12.5236 8.3427 12.5682 8.21034 12.5684 8.07422V4.39648C12.5683 4.23073 12.5025 4.07177 12.3853 3.95456C12.2681 3.83735 12.1091 3.7715 11.9434 3.77148H10.4277C10.2991 3.77138 10.1736 3.81094 10.0684 3.88477L8.00195 5.33984L5.93555 3.88477C5.83026 3.81094 5.70476 3.77138 5.57617 3.77148H4.05664V3.77148ZM9.81641 7.24023V8.07422C9.81665 8.10562 9.81926 8.13696 9.82422 8.16797H9.55468C9.42455 8.16763 9.29755 8.20791 9.19141 8.2832L8.00391 9.12891L6.81445 8.28516C6.70831 8.20986 6.58131 8.16958 6.45117 8.16992H6.17578C6.18074 8.13891 6.18335 8.10757 6.18359 8.07617L6.18554 7.24805L7.6289 8.26758C7.66896 8.296 7.71222 8.3196 7.75781 8.33789L7.77734 8.3457C7.87472 8.38459 7.98033 8.39836 8.08443 8.38573C8.18853 8.3731 8.28778 8.33449 8.37305 8.27344L9.81641 7.24023Z" fill="#FEFEFE"/>
<path d="M4.07553 8.80173L6.45354 8.7942L8.00458 9.89395L9.55199 8.79392L11.9251 8.80173L8.01826 11.6041L7.99811 11.6034L4.07553 8.80173V8.80173ZM4.05762 4.39594H5.57668L8.00135 6.1033L10.427 4.39594H11.9424V8.07356H10.442V6.02367L8.00939 7.76573L7.98963 7.75815L5.56544 6.04376L5.55789 8.07356H4.05762V4.39594L4.05762 4.39594Z" fill="#0E6ABC"/>
</svg>
